X: 1
T: Michael Burke's
M: 6/8
L: 1/8
R: jig
K: Cmaj
|:D|EGG GAB|~c3 BAG|ADD EDD|AcB AGF|
EGG GAB|~c3 BAG|ABc dBG|~c3 c2:|
|:d|ecc dBB|cBA GEG|ADD EDD|AcB AB/c/d|
ecc dBB|cBA GEG|ABc dBG|~c3 c2:|
